static/img/kroki/22ab04756b49c727b8b1f757cc92766f.svg

<?xml version="1.0" encoding="us-ascii" standalone="no"?><svg xmlns="http://www.w3.org/2000/svg" xmlns:xlink="http://www.w3.org/1999/xlink" contentStyleType="text/css" height="374px" preserveAspectRatio="none" style="width:295px;height:374px;" version="1.1" viewBox="0 0 295 374" width="295px" zoomAndPan="magnify"><defs/><g><!--class gcp_resource--><g id="elem_gcp_resource"><rect codeLine="23" fill="#3D176E" height="39.7891" id="gcp_resource" rx="2.5" ry="2.5" style="stroke:#000D19;stroke-width:0.5;" width="150" x="7" y="167.79"/><ellipse cx="22" cy="187.6845" fill="#ADD1B2" rx="11" ry="11" style="stroke:#181818;stroke-width:1.0;"/><path d="M24.9688,193.3252 Q24.3906,193.622 23.75,193.7627 Q23.1094,193.9189 22.4063,193.9189 Q19.9063,193.9189 18.5781,192.2783 Q17.2656,190.622 17.2656,187.497 Q17.2656,184.372 18.5781,182.7158 Q19.9063,181.0595 22.4063,181.0595 Q23.1094,181.0595 23.75,181.2158 Q24.4063,181.372 24.9688,181.6689 L24.9688,184.3877 Q24.3438,183.8095 23.75,183.5439 Q23.1563,183.2627 22.5313,183.2627 Q21.1875,183.2627 20.5,184.3408 Q19.8125,185.4033 19.8125,187.497 Q19.8125,189.5908 20.5,190.6689 Q21.1875,191.7314 22.5313,191.7314 Q23.1563,191.7314 23.75,191.4658 Q24.3438,191.1845 24.9688,190.6064 L24.9688,193.3252 Z " fill="#000000"/><text fill="#D9B8FF" font-family="Helvetica" font-size="17" lengthAdjust="spacing" textLength="108" x="41" y="193.5698">gcp_resource</text></g><!--class gcp_vpn_tunnel--><g id="elem_gcp_vpn_tunnel"><rect codeLine="26" fill="#3D176E" height="39.7891" id="gcp_vpn_tunnel" rx="2.5" ry="2.5" style="stroke:#000D19;stroke-width:0.5;" width="174" x="73" y="328.58"/><ellipse cx="88" cy="348.4745" fill="#ADD1B2" rx="11" ry="11" style="stroke:#181818;stroke-width:1.0;"/><path d="M90.9688,354.1152 Q90.3906,354.412 89.75,354.5527 Q89.1094,354.7089 88.4063,354.7089 Q85.9063,354.7089 84.5781,353.0683 Q83.2656,351.412 83.2656,348.287 Q83.2656,345.162 84.5781,343.5058 Q85.9063,341.8495 88.4063,341.8495 Q89.1094,341.8495 89.75,342.0058 Q90.4063,342.162 90.9688,342.4589 L90.9688,345.1777 Q90.3438,344.5995 89.75,344.3339 Q89.1563,344.0527 88.5313,344.0527 Q87.1875,344.0527 86.5,345.1308 Q85.8125,346.1933 85.8125,348.287 Q85.8125,350.3808 86.5,351.4589 Q87.1875,352.5214 88.5313,352.5214 Q89.1563,352.5214 89.75,352.2558 Q90.3438,351.9745 90.9688,351.3964 L90.9688,354.1152 Z " fill="#000000"/><text fill="#D9B8FF" font-family="Helvetica" font-size="17" lengthAdjust="spacing" textLength="132" x="107" y="354.3598">gcp_vpn_tunnel</text></g><!--class resource--><g id="elem_resource"><rect codeLine="29" fill="#3D176E" height="39.7891" id="resource" rx="2.5" ry="2.5" style="stroke:#000D19;stroke-width:0.5;" width="113" x="103.5" y="7"/><ellipse cx="118.5" cy="26.8945" fill="#ADD1B2" rx="11" ry="11" style="stroke:#181818;stroke-width:1.0;"/><path d="M121.4688,32.5352 Q120.8906,32.832 120.25,32.9727 Q119.6094,33.1289 118.9063,33.1289 Q116.4063,33.1289 115.0781,31.4883 Q113.7656,29.832 113.7656,26.707 Q113.7656,23.582 115.0781,21.9258 Q116.4063,20.2695 118.9063,20.2695 Q119.6094,20.2695 120.25,20.4258 Q120.9063,20.582 121.4688,20.8789 L121.4688,23.5977 Q120.8438,23.0195 120.25,22.7539 Q119.6563,22.4727 119.0313,22.4727 Q117.6875,22.4727 117,23.5508 Q116.3125,24.6133 116.3125,26.707 Q116.3125,28.8008 117,29.8789 Q117.6875,30.9414 119.0313,30.9414 Q119.6563,30.9414 120.25,30.6758 Q120.8438,30.3945 121.4688,29.8164 L121.4688,32.5352 Z " fill="#000000"/><text fill="#D9B8FF" font-family="Helvetica" font-size="17" lengthAdjust="spacing" textLength="71" x="137.5" y="32.7798">resource</text></g><!--class tunnel--><g id="elem_tunnel"><rect codeLine="32" fill="#3D176E" height="39.7891" id="tunnel" rx="2.5" ry="2.5" style="stroke:#000D19;stroke-width:0.5;" width="97" x="191.5" y="167.79"/><ellipse cx="206.5" cy="187.6845" fill="#ADD1B2" rx="11" ry="11" style="stroke:#181818;stroke-width:1.0;"/><path d="M209.4688,193.3252 Q208.8906,193.622 208.25,193.7627 Q207.6094,193.9189 206.9063,193.9189 Q204.4063,193.9189 203.0781,192.2783 Q201.7656,190.622 201.7656,187.497 Q201.7656,184.372 203.0781,182.7158 Q204.4063,181.0595 206.9063,181.0595 Q207.6094,181.0595 208.25,181.2158 Q208.9063,181.372 209.4688,181.6689 L209.4688,184.3877 Q208.8438,183.8095 208.25,183.5439 Q207.6563,183.2627 207.0313,183.2627 Q205.6875,183.2627 205,184.3408 Q204.3125,185.4033 204.3125,187.497 Q204.3125,189.5908 205,190.6689 Q205.6875,191.7314 207.0313,191.7314 Q207.6563,191.7314 208.25,191.4658 Q208.8438,191.1845 209.4688,190.6064 L209.4688,193.3252 Z " fill="#000000"/><text fill="#D9B8FF" font-family="Helvetica" font-size="17" lengthAdjust="spacing" textLength="55" x="225.5" y="193.5698">tunnel</text></g><!--reverse link resource to gcp_resource--><g id="link_resource_gcp_resource"><path codeLine="35" d="M142.6547,63.2065 C127.6647,93.7265 106.45,136.9 91.44,167.46 " fill="none" id="resource-backto-gcp_resource" style="stroke:#FFAF37;stroke-width:2.0;"/><polygon fill="none" points="150.59,47.05,137.2692,60.5614,148.0402,65.8516,150.59,47.05" style="stroke:#FFAF37;stroke-width:2.0;"/></g><!--reverse link gcp_resource to gcp_vpn_tunnel--><g id="link_gcp_resource_gcp_vpn_tunnel"><path codeLine="36" d="M99.3453,223.9965 C114.3353,254.5165 135.55,297.69 150.56,328.25 " fill="none" id="gcp_resource-backto-gcp_vpn_tunnel" style="stroke:#FFAF37;stroke-width:2.0;"/><polygon fill="none" points="91.41,207.84,93.9598,226.6416,104.7308,221.3514,91.41,207.84" style="stroke:#FFAF37;stroke-width:2.0;"/></g><!--reverse link tunnel to gcp_vpn_tunnel--><g id="link_tunnel_gcp_vpn_tunnel"><path codeLine="37" d="M222.2496,223.9143 C206.8696,254.4343 185.08,297.69 169.68,328.25 " fill="none" id="tunnel-backto-gcp_vpn_tunnel" style="stroke:#FFAF37;stroke-width:2.0;"/><polygon fill="none" points="230.35,207.84,216.8915,221.2142,227.6077,226.6145,230.35,207.84" style="stroke:#FFAF37;stroke-width:2.0;"/></g><!--reverse link resource to tunnel--><g id="link_resource_tunnel"><path codeLine="38" d="M177.7504,63.1243 C193.1304,93.6443 214.92,136.9 230.32,167.46 " fill="none" id="resource-backto-tunnel" style="stroke:#FFAF37;stroke-width:2.0;"/><polygon fill="none" points="169.65,47.05,172.3923,65.8245,183.1085,60.4242,169.65,47.05" style="stroke:#FFAF37;stroke-width:2.0;"/></g><!--SRC=[XP3BReCm44NtV8Mbh96WKKkGkacGgdOJLKttaS5Zi00RZKsYzF7lBGrDZ279Tixnt3ik10C2TMCEf8Ow1TIUBeLiADAQB17LFb6LGZBZdF9vvC8d9SrDOKrh8CzGxS28ZBh6Uo6oKeBMvCv2AvgLEQfMikDwWrJgNmJIM5PIKQsNng18MmDM6HQd2yvTqrqwcxCmUe2Hff01zaeG12oCNULcrDMxJyP6V009xKzRAmEZcgE8F-jgoywmIeuE_USNExvIneJCoRqrUpjsGWauc6yAojI-ipcjj1sZ3I0eSsWW6Lq5yOBnQ59-kIHxMVTr9C-QBO9MBMP0FZtlsvhl6harhPHGsMJAjgqJV_poVNyGu0tIplmSvFMR9fdpif_-0000]--></g></svg>

<svg xmlns="http://www.w3.org/2000/svg" width="295" height="374" viewBox="0 0 295 374"><rect width="150" height="39.789" x="7" y="167.79" fill="#3D176E" rx="2.5" ry="2.5" style="stroke:#000d19;stroke-width:.5"/><circle cx="22" cy="187.685" r="11" fill="#ADD1B2" style="stroke:#181818;stroke-width:1"/><path d="M24.969 193.325q-.578.297-1.219.438-.64.156-1.344.156-2.5 0-3.828-1.64-1.312-1.657-1.312-4.782t1.312-4.781q1.328-1.656 3.828-1.656.703 0 1.344.156.656.156 1.219.453v2.719q-.625-.578-1.219-.844-.594-.281-1.219-.281-1.343 0-2.031 1.078-.687 1.062-.687 3.156t.687 3.172q.688 1.062 2.031 1.062.625 0 1.219-.265.594-.281 1.219-.86z"/><text x="41" y="193.57" fill="#D9B8FF" font-family="Helvetica" font-size="17" textLength="108">gcp_resource</text><rect width="174" height="39.789" x="73" y="328.58" fill="#3D176E" rx="2.5" ry="2.5" style="stroke:#000d19;stroke-width:.5"/><circle cx="88" cy="348.474" r="11" fill="#ADD1B2" style="stroke:#181818;stroke-width:1"/><path d="M90.969 354.115q-.578.297-1.219.438-.64.156-1.344.156-2.5 0-3.828-1.64-1.312-1.657-1.312-4.782t1.312-4.781q1.328-1.656 3.828-1.656.703 0 1.344.156.656.156 1.219.453v2.719q-.625-.579-1.219-.844-.594-.281-1.219-.281-1.344 0-2.031 1.078-.687 1.062-.687 3.156t.687 3.172q.688 1.062 2.031 1.062.625 0 1.219-.265.594-.281 1.219-.86z"/><text x="107" y="354.36" fill="#D9B8FF" font-family="Helvetica" font-size="17" textLength="132">gcp_vpn_tunnel</text><rect width="113" height="39.789" x="103.5" y="7" fill="#3D176E" rx="2.5" ry="2.5" style="stroke:#000d19;stroke-width:.5"/><circle cx="118.5" cy="26.895" r="11" fill="#ADD1B2" style="stroke:#181818;stroke-width:1"/><path d="M121.469 32.535q-.578.297-1.219.438-.64.156-1.344.156-2.5 0-3.828-1.64-1.312-1.657-1.312-4.782t1.312-4.781q1.328-1.656 3.828-1.656.703 0 1.344.156.656.156 1.219.453v2.719q-.625-.578-1.219-.844-.594-.281-1.219-.281-1.344 0-2.031 1.078-.687 1.062-.687 3.156t.687 3.172q.688 1.062 2.031 1.062.625 0 1.219-.265.594-.281 1.219-.86z"/><text x="137.5" y="32.78" fill="#D9B8FF" font-family="Helvetica" font-size="17" textLength="71">resource</text><rect width="97" height="39.789" x="191.5" y="167.79" fill="#3D176E" rx="2.5" ry="2.5" style="stroke:#000d19;stroke-width:.5"/><circle cx="206.5" cy="187.685" r="11" fill="#ADD1B2" style="stroke:#181818;stroke-width:1"/><path d="M209.469 193.325q-.578.297-1.219.438-.64.156-1.344.156-2.5 0-3.828-1.64-1.312-1.657-1.312-4.782t1.312-4.781q1.328-1.656 3.828-1.656.703 0 1.344.156.656.156 1.219.453v2.719q-.625-.578-1.219-.844-.594-.281-1.219-.281-1.344 0-2.031 1.078-.687 1.062-.687 3.156t.687 3.172q.688 1.062 2.031 1.062.625 0 1.219-.265.594-.281 1.219-.86z"/><text x="225.5" y="193.57" fill="#D9B8FF" font-family="Helvetica" font-size="17" textLength="55">tunnel</text><path fill="none" d="M142.655 63.207C127.665 93.727 106.45 136.9 91.44 167.46m59.15-120.41-13.32 13.511 10.77 5.29zM99.345 223.997c14.99 30.52 36.205 73.693 51.215 104.253M91.41 207.84l2.55 18.802 10.77-5.29z" style="stroke:#ffaf37;stroke-width:2"/><g fill="none"><path d="M222.25 223.914c-15.38 30.52-37.17 73.776-52.57 104.336" style="stroke:#ffaf37;stroke-width:2"/><path d="m230.35 207.84-13.458 13.374 10.716 5.4z" style="stroke:#ffaf37;stroke-width:2"/></g><g fill="none"><path d="M177.75 63.124c15.38 30.52 37.17 73.776 52.57 104.336" style="stroke:#ffaf37;stroke-width:2"/><path d="m169.65 47.05 2.742 18.775 10.716-5.4z" style="stroke:#ffaf37;stroke-width:2"/></g></svg>
